src/assets/flowcharticon.svg

<svg width="48" height="48" viewBox="0 0 48 48" fill="none" xmlns="http://www.w3.org/2000/svg">
<path opacity="0.4" d="M12.0989 34.4827C9.06632 34.4827 6.54528 34.4827 3.60708 34.4827C2.82744 34.4827 2.19531 35.1148 2.19531 35.8945V44.9651C2.19531 45.7448 2.82744 46.3769 3.60708 46.3769H12.0989C12.8787 46.3769 13.5106 45.7448 13.5106 44.9651V35.8945C13.5106 35.1148 12.8787 34.4827 12.0989 34.4827ZM29.6551 44.9652C29.6551 45.7449 29.023 46.3769 28.2433 46.3769H19.7516C18.9719 46.3769 18.3398 45.7449 18.3398 44.9652V35.8945C18.3398 35.1148 18.9719 34.4827 19.7516 34.4827H28.2433C29.023 34.4827 29.6551 35.1148 29.6551 35.8945C29.6551 35.9831 29.6551 45.0365 29.6551 44.9652ZM44.3878 34.4827C41.8789 34.4827 38.3985 34.4827 35.896 34.4827C35.1164 34.4827 34.4843 35.1148 34.4843 35.8945V44.9651C34.4843 45.7448 35.1164 46.3769 35.896 46.3769H44.3878C45.1676 46.3769 45.7996 45.7448 45.7996 44.9651V35.8945C45.7996 35.1148 45.1676 34.4827 44.3878 34.4827ZM35.6832 4.74362V5.97202H23.5772L21.4527 2.62598H33.5655C34.7302 2.62598 35.6832 3.57209 35.6832 4.74362Z" fill="#FF0000"/>
<mask id="path-2-outside-1_283_6845" maskUnits="userSpaceOnUse" x="0.667969" y="0.09375" width="47" height="48" fill="black">
<rect fill="white" x="0.667969" y="0.09375" width="47" height="48"/>
<path d="M44.3897 33.9528H40.6735V32.9625C40.6735 31.5025 39.4861 30.3155 38.0264 30.3155H24.5288V26.1384H35.8853C37.3447 26.1119 38.4876 24.949 38.4876 23.4914V7.60213C38.4876 6.4113 37.5187 5.44209 36.3275 5.44209H36.2145V4.74311C36.2145 3.28343 35.0271 2.09605 33.5674 2.09605H21.747L21.7429 2.08984C21.3365 1.46599 20.6561 1.09375 19.9227 1.09375H11.671C10.4798 1.09375 9.51091 2.06296 9.51091 3.25379V23.4914C9.51091 24.9511 10.6983 26.1384 12.158 26.1384H23.47V30.3155H9.95105C9.94519 30.3155 9.93934 30.3155 9.93382 30.3155C8.49207 30.3369 7.32572 31.5156 7.32572 32.9625V33.9528H3.60915C2.53895 33.9528 1.66797 34.8238 1.66797 35.894V44.9646C1.66797 46.0352 2.53895 46.9058 3.60915 46.9058H12.1008C13.171 46.9058 14.0419 46.0352 14.0419 44.9646V35.894C14.0419 34.8238 13.171 33.9528 12.1008 33.9528H8.38454V32.9625C8.38454 32.0864 9.09697 31.3743 9.97277 31.3743H23.47V33.9528H19.7538C18.6836 33.9528 17.8126 34.8238 17.8126 35.894V44.9646C17.8126 46.0352 18.6836 46.9058 19.7538 46.9058H28.2454C29.3156 46.9058 30.1866 46.0352 30.1866 44.9646V35.894C30.1866 34.8238 29.3156 33.9528 28.2454 33.9528H24.5288V31.3743H38.0264C38.9022 31.3743 39.6147 32.0864 39.6147 32.9625V33.9528H35.8981C34.8279 33.9528 33.9569 34.8238 33.9569 35.894V44.9646C33.9569 46.0352 34.8279 46.9058 35.8981 46.9058H44.3897C45.4599 46.9058 46.3309 46.0352 46.3309 44.9646V35.894C46.3309 34.8238 45.4599 33.9528 44.3897 33.9528ZM33.5674 3.15487C34.4432 3.15487 35.1557 3.8673 35.1557 4.74311V5.44209H23.8702L22.4188 3.15487H33.5674ZM10.5697 23.4914V3.25379C10.5697 2.64683 11.0637 2.15257 11.671 2.15257H19.9227C20.2966 2.15257 20.6455 2.34489 20.8512 2.66061C21.0238 2.93255 23.2743 6.47946 23.1322 6.25551C23.2294 6.4082 23.398 6.50091 23.5793 6.50091C29.7507 6.50091 32.7162 6.50091 36.3276 6.50091C36.9349 6.50091 37.4288 6.99517 37.4288 7.60213V23.4914C37.4288 24.3662 36.7422 25.0638 35.8757 25.0796H12.158C11.2822 25.0796 10.5697 24.3672 10.5697 23.4914ZM12.9831 35.894V44.9646C12.9831 45.4513 12.5874 45.847 12.1008 45.847H3.60915C3.12247 45.847 2.72679 45.4513 2.72679 44.9646V35.894C2.72679 35.4076 3.12247 35.0116 3.60915 35.0116H12.1008C12.5874 35.0116 12.9831 35.4076 12.9831 35.894ZM29.1278 35.894V44.9646C29.1278 45.4513 28.7321 45.847 28.2454 45.847H19.7538C19.2671 45.847 18.8714 45.4513 18.8714 44.9646V35.894C18.8714 35.4076 19.2671 35.0116 19.7538 35.0116H28.2454C28.7321 35.0116 29.1278 35.4076 29.1278 35.894ZM45.2721 44.9646C45.2721 45.4513 44.8764 45.847 44.3897 45.847H35.8981C35.4114 45.847 35.0157 45.4513 35.0157 44.9646V35.894C35.0157 35.4076 35.4114 35.0116 35.8981 35.0116H44.3897C44.8764 35.0116 45.2721 35.4076 45.2721 35.894L45.2721 44.9646Z"/>
</mask>
<path d="M44.3897 33.9528H40.6735V32.9625C40.6735 31.5025 39.4861 30.3155 38.0264 30.3155H24.5288V26.1384H35.8853C37.3447 26.1119 38.4876 24.949 38.4876 23.4914V7.60213C38.4876 6.4113 37.5187 5.44209 36.3275 5.44209H36.2145V4.74311C36.2145 3.28343 35.0271 2.09605 33.5674 2.09605H21.747L21.7429 2.08984C21.3365 1.46599 20.6561 1.09375 19.9227 1.09375H11.671C10.4798 1.09375 9.51091 2.06296 9.51091 3.25379V23.4914C9.51091 24.9511 10.6983 26.1384 12.158 26.1384H23.47V30.3155H9.95105C9.94519 30.3155 9.93934 30.3155 9.93382 30.3155C8.49207 30.3369 7.32572 31.5156 7.32572 32.9625V33.9528H3.60915C2.53895 33.9528 1.66797 34.8238 1.66797 35.894V44.9646C1.66797 46.0352 2.53895 46.9058 3.60915 46.9058H12.1008C13.171 46.9058 14.0419 46.0352 14.0419 44.9646V35.894C14.0419 34.8238 13.171 33.9528 12.1008 33.9528H8.38454V32.9625C8.38454 32.0864 9.09697 31.3743 9.97277 31.3743H23.47V33.9528H19.7538C18.6836 33.9528 17.8126 34.8238 17.8126 35.894V44.9646C17.8126 46.0352 18.6836 46.9058 19.7538 46.9058H28.2454C29.3156 46.9058 30.1866 46.0352 30.1866 44.9646V35.894C30.1866 34.8238 29.3156 33.9528 28.2454 33.9528H24.5288V31.3743H38.0264C38.9022 31.3743 39.6147 32.0864 39.6147 32.9625V33.9528H35.8981C34.8279 33.9528 33.9569 34.8238 33.9569 35.894V44.9646C33.9569 46.0352 34.8279 46.9058 35.8981 46.9058H44.3897C45.4599 46.9058 46.3309 46.0352 46.3309 44.9646V35.894C46.3309 34.8238 45.4599 33.9528 44.3897 33.9528ZM33.5674 3.15487C34.4432 3.15487 35.1557 3.8673 35.1557 4.74311V5.44209H23.8702L22.4188 3.15487H33.5674ZM10.5697 23.4914V3.25379C10.5697 2.64683 11.0637 2.15257 11.671 2.15257H19.9227C20.2966 2.15257 20.6455 2.34489 20.8512 2.66061C21.0238 2.93255 23.2743 6.47946 23.1322 6.25551C23.2294 6.4082 23.398 6.50091 23.5793 6.50091C29.7507 6.50091 32.7162 6.50091 36.3276 6.50091C36.9349 6.50091 37.4288 6.99517 37.4288 7.60213V23.4914C37.4288 24.3662 36.7422 25.0638 35.8757 25.0796H12.158C11.2822 25.0796 10.5697 24.3672 10.5697 23.4914ZM12.9831 35.894V44.9646C12.9831 45.4513 12.5874 45.847 12.1008 45.847H3.60915C3.12247 45.847 2.72679 45.4513 2.72679 44.9646V35.894C2.72679 35.4076 3.12247 35.0116 3.60915 35.0116H12.1008C12.5874 35.0116 12.9831 35.4076 12.9831 35.894ZM29.1278 35.894V44.9646C29.1278 45.4513 28.7321 45.847 28.2454 45.847H19.7538C19.2671 45.847 18.8714 45.4513 18.8714 44.9646V35.894C18.8714 35.4076 19.2671 35.0116 19.7538 35.0116H28.2454C28.7321 35.0116 29.1278 35.4076 29.1278 35.894ZM45.2721 44.9646C45.2721 45.4513 44.8764 45.847 44.3897 45.847H35.8981C35.4114 45.847 35.0157 45.4513 35.0157 44.9646V35.894C35.0157 35.4076 35.4114 35.0116 35.8981 35.0116H44.3897C44.8764 35.0116 45.2721 35.4076 45.2721 35.894L45.2721 44.9646Z" fill="#B30000"/>
<path d="M44.3897 33.9528H40.6735V32.9625C40.6735 31.5025 39.4861 30.3155 38.0264 30.3155H24.5288V26.1384H35.8853C37.3447 26.1119 38.4876 24.949 38.4876 23.4914V7.60213C38.4876 6.4113 37.5187 5.44209 36.3275 5.44209H36.2145V4.74311C36.2145 3.28343 35.0271 2.09605 33.5674 2.09605H21.747L21.7429 2.08984C21.3365 1.46599 20.6561 1.09375 19.9227 1.09375H11.671C10.4798 1.09375 9.51091 2.06296 9.51091 3.25379V23.4914C9.51091 24.9511 10.6983 26.1384 12.158 26.1384H23.47V30.3155H9.95105C9.94519 30.3155 9.93934 30.3155 9.93382 30.3155C8.49207 30.3369 7.32572 31.5156 7.32572 32.9625V33.9528H3.60915C2.53895 33.9528 1.66797 34.8238 1.66797 35.894V44.9646C1.66797 46.0352 2.53895 46.9058 3.60915 46.9058H12.1008C13.171 46.9058 14.0419 46.0352 14.0419 44.9646V35.894C14.0419 34.8238 13.171 33.9528 12.1008 33.9528H8.38454V32.9625C8.38454 32.0864 9.09697 31.3743 9.97277 31.3743H23.47V33.9528H19.7538C18.6836 33.9528 17.8126 34.8238 17.8126 35.894V44.9646C17.8126 46.0352 18.6836 46.9058 19.7538 46.9058H28.2454C29.3156 46.9058 30.1866 46.0352 30.1866 44.9646V35.894C30.1866 34.8238 29.3156 33.9528 28.2454 33.9528H24.5288V31.3743H38.0264C38.9022 31.3743 39.6147 32.0864 39.6147 32.9625V33.9528H35.8981C34.8279 33.9528 33.9569 34.8238 33.9569 35.894V44.9646C33.9569 46.0352 34.8279 46.9058 35.8981 46.9058H44.3897C45.4599 46.9058 46.3309 46.0352 46.3309 44.9646V35.894C46.3309 34.8238 45.4599 33.9528 44.3897 33.9528ZM33.5674 3.15487C34.4432 3.15487 35.1557 3.8673 35.1557 4.74311V5.44209H23.8702L22.4188 3.15487H33.5674ZM10.5697 23.4914V3.25379C10.5697 2.64683 11.0637 2.15257 11.671 2.15257H19.9227C20.2966 2.15257 20.6455 2.34489 20.8512 2.66061C21.0238 2.93255 23.2743 6.47946 23.1322 6.25551C23.2294 6.4082 23.398 6.50091 23.5793 6.50091C29.7507 6.50091 32.7162 6.50091 36.3276 6.50091C36.9349 6.50091 37.4288 6.99517 37.4288 7.60213V23.4914C37.4288 24.3662 36.7422 25.0638 35.8757 25.0796H12.158C11.2822 25.0796 10.5697 24.3672 10.5697 23.4914ZM12.9831 35.894V44.9646C12.9831 45.4513 12.5874 45.847 12.1008 45.847H3.60915C3.12247 45.847 2.72679 45.4513 2.72679 44.9646V35.894C2.72679 35.4076 3.12247 35.0116 3.60915 35.0116H12.1008C12.5874 35.0116 12.9831 35.4076 12.9831 35.894ZM29.1278 35.894V44.9646C29.1278 45.4513 28.7321 45.847 28.2454 45.847H19.7538C19.2671 45.847 18.8714 45.4513 18.8714 44.9646V35.894C18.8714 35.4076 19.2671 35.0116 19.7538 35.0116H28.2454C28.7321 35.0116 29.1278 35.4076 29.1278 35.894ZM45.2721 44.9646C45.2721 45.4513 44.8764 45.847 44.3897 45.847H35.8981C35.4114 45.847 35.0157 45.4513 35.0157 44.9646V35.894C35.0157 35.4076 35.4114 35.0116 35.8981 35.0116H44.3897C44.8764 35.0116 45.2721 35.4076 45.2721 35.894L45.2721 44.9646Z" stroke="#B30000" stroke-width="0.8" mask="url(#path-2-outside-1_283_6845)"/>
<path d="M33.6882 18.5508H26.5411C26.2489 18.5508 26.0117 18.7879 26.0117 19.0802C26.0117 19.3725 26.2489 19.6096 26.5411 19.6096H33.6882C33.9805 19.6096 34.2176 19.3725 34.2176 19.0802C34.2176 18.7879 33.9805 18.5508 33.6882 18.5508ZM33.6882 21.3743H26.5411C26.2489 21.3743 26.0117 21.6114 26.0117 21.9037C26.0117 22.196 26.2489 22.4331 26.5411 22.4331H33.6882C33.9805 22.4331 34.2176 22.196 34.2176 21.9037C34.2176 21.6114 33.9805 21.3743 33.6882 21.3743Z" fill="#B30000"/>
<path d="M10.69 44.0823H5.0216C4.72932 44.0823 4.49219 43.8454 4.49219 43.5529C4.49219 43.2605 4.72932 43.0235 5.0216 43.0235H10.69C10.9823 43.0235 11.2194 43.2605 11.2194 43.5529C11.2194 43.8454 10.9823 44.0823 10.69 44.0823ZM10.69 37.8352H5.0216C4.72932 37.8352 4.49219 37.5982 4.49219 37.3058C4.49219 37.0133 4.72932 36.7764 5.0216 36.7764H10.69C10.9823 36.7764 11.2194 37.0133 11.2194 37.3058C11.2194 37.5982 10.9823 37.8352 10.69 37.8352ZM10.69 40.9588H5.0216C4.72932 40.9588 4.49219 40.7218 4.49219 40.4293C4.49219 40.1369 4.72932 39.8999 5.0216 39.8999H10.69C10.9823 39.8999 11.2194 40.1369 11.2194 40.4293C11.2194 40.7218 10.9823 40.9588 10.69 40.9588ZM26.8343 44.0823H21.1659C20.8736 44.0823 20.6365 43.8454 20.6365 43.5529C20.6365 43.2605 20.8736 43.0235 21.1659 43.0235H26.8343C27.1266 43.0235 27.3637 43.2605 27.3637 43.5529C27.3637 43.8454 27.1266 44.0823 26.8343 44.0823ZM26.8343 37.8352H21.1659C20.8736 37.8352 20.6365 37.5982 20.6365 37.3058C20.6365 37.0133 20.8736 36.7764 21.1659 36.7764H26.8343C27.1266 36.7764 27.3637 37.0133 27.3637 37.3058C27.3637 37.5982 27.1266 37.8352 26.8343 37.8352ZM26.8343 40.9588H21.1659C20.8736 40.9588 20.6365 40.7218 20.6365 40.4293C20.6365 40.1369 20.8736 39.8999 21.1659 39.8999H26.8343C27.1266 39.8999 27.3637 40.1369 27.3637 40.4293C27.3637 40.7218 27.1266 40.9588 26.8343 40.9588ZM42.979 44.0823H37.3106C37.0183 44.0823 36.7811 43.8454 36.7811 43.5529C36.7811 43.2605 37.0183 43.0235 37.3106 43.0235H42.979C43.2713 43.0235 43.5084 43.2605 43.5084 43.5529C43.5084 43.8454 43.2713 44.0823 42.979 44.0823ZM42.979 37.8352H37.3106C37.0183 37.8352 36.7811 37.5982 36.7811 37.3058C36.7811 37.0133 37.0183 36.7764 37.3106 36.7764H42.979C43.2713 36.7764 43.5084 37.0133 43.5084 37.3058C43.5084 37.5982 43.2713 37.8352 42.979 37.8352ZM42.979 40.9588H37.3106C37.0183 40.9588 36.7811 40.7218 36.7811 40.4293C36.7811 40.1369 37.0183 39.8999 37.3106 39.8999H42.979C43.2713 39.8999 43.5084 40.1369 43.5084 40.4293C43.5084 40.7218 43.2713 40.9588 42.979 40.9588Z" fill="white"/>
</svg>

<svg width="48" height="48" viewBox="0 0 48 48" fill="none" xmlns="http://www.w3.org/2000/svg">
    <path opacity=".4" d="M12.102 34.483H3.61c-.78 0-1.412.632-1.412 1.411v9.07c0 .78.632 1.413 1.412 1.413h8.492c.78 0 1.412-.633 1.412-1.412v-9.07c0-.78-.632-1.413-1.412-1.413zm17.556 10.482c0 .78-.632 1.412-1.412 1.412h-8.491c-.78 0-1.412-.632-1.412-1.412v-9.07c0-.78.632-1.413 1.412-1.413h8.491c.78 0 1.412.633 1.412 1.412v9.07zm14.733-10.483h-8.492c-.78 0-1.412.633-1.412 1.412v9.07c0 .78.632 1.413 1.412 1.413h8.492c.78 0 1.412-.633 1.412-1.412v-9.07c0-.78-.632-1.413-1.412-1.413zM35.686 4.744v1.229H23.58l-2.124-3.346h12.113a2.12 2.12 0 0 1 2.117 2.117z" fill="red"/>
    <mask id="tzws2pykfa" maskUnits="userSpaceOnUse" x=".669" y=".094" width="47" height="48" fill="#000">
        <path fill="#fff" d="M.669.094h47v48h-47z"/>
        <path d="M44.39 33.953h-3.715v-.99a2.65 2.65 0 0 0-2.648-2.647H24.53v-4.177h11.356a2.63 2.63 0 0 0 2.603-2.647V7.602c0-1.19-.97-2.16-2.16-2.16h-.114v-.699a2.65 2.65 0 0 0-2.647-2.647h-11.82l-.004-.006a2.17 2.17 0 0 0-1.82-.996h-8.252c-1.191 0-2.16.97-2.16 2.16v20.238a2.65 2.65 0 0 0 2.647 2.647H23.47v4.177H9.935a2.65 2.65 0 0 0-2.608 2.647v.99H3.61c-1.07 0-1.941.871-1.941 1.941v9.07c0 1.071.87 1.942 1.941 1.942h8.492c1.07 0 1.94-.87 1.94-1.941v-9.07c0-1.071-.87-1.942-1.94-1.942H8.386v-.99a1.59 1.59 0 0 1 1.588-1.588H23.47v2.578h-3.716c-1.07 0-1.941.871-1.941 1.941v9.07c0 1.071.87 1.942 1.94 1.942h8.492c1.07 0 1.942-.87 1.942-1.941v-9.07c0-1.071-.871-1.942-1.942-1.942H24.53v-2.578h13.497a1.59 1.59 0 0 1 1.589 1.588v.99h-3.717c-1.07 0-1.941.871-1.941 1.941v9.07c0 1.071.87 1.942 1.941 1.942h8.492c1.07 0 1.94-.87 1.94-1.941v-9.07c0-1.071-.87-1.942-1.94-1.942zM33.569 3.155a1.59 1.59 0 0 1 1.589 1.588v.7H23.87L22.42 3.154h11.148zM10.571 23.492V3.254c0-.607.494-1.101 1.1-1.101h8.253c.374 0 .722.192.928.508l2.281 3.595a.53.53 0 0 0 .447.245h12.748c.608 0 1.102.494 1.102 1.101v15.89c0 .874-.687 1.572-1.553 1.588H12.159a1.59 1.59 0 0 1-1.588-1.588zm2.413 12.402v9.07a.883.883 0 0 1-.882.883H3.61a.883.883 0 0 1-.882-.882v-9.07c0-.487.395-.883.882-.883h8.492c.486 0 .882.396.882.882zm16.145 0v9.07a.883.883 0 0 1-.883.883h-8.491a.883.883 0 0 1-.883-.882v-9.07c0-.487.396-.883.883-.883h8.491c.487 0 .883.396.883.882zm16.144 9.07a.883.883 0 0 1-.882.883h-8.492a.883.883 0 0 1-.882-.882v-9.07c0-.487.395-.883.882-.883h8.492c.486 0 .882.396.882.882v9.07z"/>
    </mask>
    <path d="M44.39 33.953h-3.715v-.99a2.65 2.65 0 0 0-2.648-2.647H24.53v-4.177h11.356a2.63 2.63 0 0 0 2.603-2.647V7.602c0-1.19-.97-2.16-2.16-2.16h-.114v-.699a2.65 2.65 0 0 0-2.647-2.647h-11.82l-.004-.006a2.17 2.17 0 0 0-1.82-.996h-8.252c-1.191 0-2.16.97-2.16 2.16v20.238a2.65 2.65 0 0 0 2.647 2.647H23.47v4.177H9.935a2.65 2.65 0 0 0-2.608 2.647v.99H3.61c-1.07 0-1.941.871-1.941 1.941v9.07c0 1.071.87 1.942 1.941 1.942h8.492c1.07 0 1.94-.87 1.94-1.941v-9.07c0-1.071-.87-1.942-1.94-1.942H8.386v-.99a1.59 1.59 0 0 1 1.588-1.588H23.47v2.578h-3.716c-1.07 0-1.941.871-1.941 1.941v9.07c0 1.071.87 1.942 1.94 1.942h8.492c1.07 0 1.942-.87 1.942-1.941v-9.07c0-1.071-.871-1.942-1.942-1.942H24.53v-2.578h13.497a1.59 1.59 0 0 1 1.589 1.588v.99h-3.717c-1.07 0-1.941.871-1.941 1.941v9.07c0 1.071.87 1.942 1.941 1.942h8.492c1.07 0 1.94-.87 1.94-1.941v-9.07c0-1.071-.87-1.942-1.94-1.942zM33.569 3.155a1.59 1.59 0 0 1 1.589 1.588v.7H23.87L22.42 3.154h11.148zM10.571 23.492V3.254c0-.607.494-1.101 1.1-1.101h8.253c.374 0 .722.192.928.508l2.281 3.595a.53.53 0 0 0 .447.245h12.748c.608 0 1.102.494 1.102 1.101v15.89c0 .874-.687 1.572-1.553 1.588H12.159a1.59 1.59 0 0 1-1.588-1.588zm2.413 12.402v9.07a.883.883 0 0 1-.882.883H3.61a.883.883 0 0 1-.882-.882v-9.07c0-.487.395-.883.882-.883h8.492c.486 0 .882.396.882.882zm16.145 0v9.07a.883.883 0 0 1-.883.883h-8.491a.883.883 0 0 1-.883-.882v-9.07c0-.487.396-.883.883-.883h8.491c.487 0 .883.396.883.882zm16.144 9.07a.883.883 0 0 1-.882.883h-8.492a.883.883 0 0 1-.882-.882v-9.07c0-.487.395-.883.882-.883h8.492c.486 0 .882.396.882.882v9.07z" fill="#004498"/>
    <path d="M44.39 33.953h-3.715v-.99a2.65 2.65 0 0 0-2.648-2.647H24.53v-4.177h11.356a2.63 2.63 0 0 0 2.603-2.647V7.602c0-1.19-.97-2.16-2.16-2.16h-.114v-.699a2.65 2.65 0 0 0-2.647-2.647h-11.82l-.004-.006a2.17 2.17 0 0 0-1.82-.996h-8.252c-1.191 0-2.16.97-2.16 2.16v20.238a2.65 2.65 0 0 0 2.647 2.647H23.47v4.177H9.935a2.65 2.65 0 0 0-2.608 2.647v.99H3.61c-1.07 0-1.941.871-1.941 1.941v9.07c0 1.071.87 1.942 1.941 1.942h8.492c1.07 0 1.94-.87 1.94-1.941v-9.07c0-1.071-.87-1.942-1.94-1.942H8.386v-.99a1.59 1.59 0 0 1 1.588-1.588H23.47v2.578h-3.716c-1.07 0-1.941.871-1.941 1.941v9.07c0 1.071.87 1.942 1.94 1.942h8.492c1.07 0 1.942-.87 1.942-1.941v-9.07c0-1.071-.871-1.942-1.942-1.942H24.53v-2.578h13.497a1.59 1.59 0 0 1 1.589 1.588v.99h-3.717c-1.07 0-1.941.871-1.941 1.941v9.07c0 1.071.87 1.942 1.941 1.942h8.492c1.07 0 1.94-.87 1.94-1.941v-9.07c0-1.071-.87-1.942-1.94-1.942zM33.569 3.155a1.59 1.59 0 0 1 1.589 1.588v.7H23.87L22.42 3.154h11.148zM10.571 23.492V3.254c0-.607.494-1.101 1.1-1.101h8.253c.374 0 .722.192.928.508l2.281 3.595a.53.53 0 0 0 .447.245h12.748c.608 0 1.102.494 1.102 1.101v15.89c0 .874-.687 1.572-1.553 1.588H12.159a1.59 1.59 0 0 1-1.588-1.588zm2.413 12.402v9.07a.883.883 0 0 1-.882.883H3.61a.883.883 0 0 1-.882-.882v-9.07c0-.487.395-.883.882-.883h8.492c.486 0 .882.396.882.882zm16.145 0v9.07a.883.883 0 0 1-.883.883h-8.491a.883.883 0 0 1-.883-.882v-9.07c0-.487.396-.883.883-.883h8.491c.487 0 .883.396.883.882zm16.144 9.07a.883.883 0 0 1-.882.883h-8.492a.883.883 0 0 1-.882-.882v-9.07c0-.487.395-.883.882-.883h8.492c.486 0 .882.396.882.882v9.07z" stroke="#004498" stroke-width=".8" mask="url(#tzws2pykfa)"/>
    <path d="M33.686 18.55H26.54a.53.53 0 0 0 0 1.06h7.147a.53.53 0 0 0 0-1.06zm0 2.824H26.54a.53.53 0 0 0 0 1.06h7.147a.53.53 0 0 0 0-1.06z" fill="#004498"/>
    <path d="M10.69 44.082H5.022a.53.53 0 1 1 0-1.058h5.668a.53.53 0 0 1 0 1.058zm0-6.247H5.022a.53.53 0 1 1 0-1.059h5.668a.53.53 0 1 1 0 1.06zm0 3.124H5.022a.53.53 0 0 1 0-1.059h5.668a.53.53 0 1 1 0 1.059zm16.144 3.123h-5.668a.53.53 0 1 1 0-1.058h5.668a.53.53 0 0 1 0 1.058zm0-6.247h-5.668a.53.53 0 1 1 0-1.059h5.668a.53.53 0 1 1 0 1.06zm0 3.124h-5.668a.53.53 0 0 1 0-1.059h5.668a.53.53 0 1 1 0 1.059zm16.145 3.123h-5.668a.53.53 0 1 1 0-1.058h5.668a.53.53 0 0 1 0 1.058zm0-6.247h-5.668a.53.53 0 1 1 0-1.059h5.668a.53.53 0 1 1 0 1.06zm0 3.124h-5.668a.53.53 0 0 1 0-1.059h5.668a.53.53 0 1 1 0 1.059z" fill="#fff"/>
</svg>
